X:1
%
T:Rose Waltz [1], The
M:3/4
L:1/8
R:Waltz
B:Roche - Collection of Traditional Irish Music vol. 3 (1927, No. 144)
Z:AK/Fiddler's Companion
K:D
P:1
O(3ABA|F2 (A3f)|d4 (3ded|c2 (b3a)|g4A2|A2B2c2|
d2e2f2|(g2c'3a)|(b4a2)|F2(A3f)|d4 (3ded|
c2 (b3a)|g4e2|(ba)gfed|(cB)AGFE|(FG)ABce|d4!fermata!:|
|:A2|(f4c2)|(d4F2)|(G2c3B)|A6|(g4c2)|(f4A2)|
(c2b3a)|(f4A2)|(f4c2)|(d4F2)|(G2c3B)|
A6|G2 ceg2|A2 df a2|(ge)cAGE|D4!D.C.!:|
P:2
A2|f6|(a2g3c)|d6|(F2A3d)|c6|(E2G3B)|
A6|F2A2d2|f6|(a2g3f)|(e4g2)|(c'4b)|
a2c'2b2|a2g2c2|d2 {e}dcde|d4z2||
f2 ffff|e2 eeee|d2 (d3c)|B6|g2 gggg|
f2 ffff|e2 (e3d)|c6|f2 ffff|e2 eeee|d2 dddd|
c2 c3c|{d}c2=c2^c2|(f4e2)|d2 {e}dcde|d4!D.C.!||

